assets/img/safety2.svg

<svg width="101" height="101" viewBox="0 0 101 101" fill="none" xmlns="http://www.w3.org/2000/svg">
<circle cx="50.6758" cy="50.4863" r="50" fill="#00AEEF"/>
<path d="M71.9951 30.2753H59.8144V36.3594H67.2314L76.3762 72.9015H24.9754L34.1078 36.3594H41.5372V30.2753H29.3565L17.1758 78.998H84.1758L71.9951 30.2753Z" fill="white"/>
<path d="M47.6335 29.7446V42.4559L53.7177 36.3594V29.7446C55.7526 29.0268 57.4681 27.6125 58.5609 25.7519C59.6537 23.8913 60.0534 21.7043 59.6893 19.5774C59.3251 17.4506 58.2207 15.521 56.5712 14.1299C54.9217 12.7388 52.8334 11.9758 50.6756 11.9758C48.5179 11.9758 46.4296 12.7388 44.7801 14.1299C43.1306 15.521 42.0261 17.4506 41.662 19.5774C41.2979 21.7043 41.6975 23.8913 42.7903 25.7519C43.8831 27.6125 45.5987 29.0268 47.6335 29.7446ZM50.6695 18.0945C51.2734 18.0921 51.8644 18.2691 52.3676 18.6031C52.8708 18.9371 53.2634 19.4131 53.4956 19.9706C53.7279 20.5281 53.7893 21.142 53.6721 21.7344C53.5548 22.3269 53.2643 22.8712 52.8372 23.2982C52.4102 23.7253 51.8659 24.0158 51.2734 24.1331C50.681 24.2503 50.0671 24.1889 49.5096 23.9566C48.9521 23.7244 48.4761 23.3318 48.1421 22.8286C47.8081 22.3254 47.6311 21.7344 47.6335 21.1305C47.6368 20.3263 47.9577 19.556 48.5263 18.9873C49.095 18.4187 49.8653 18.0978 50.6695 18.0945Z" fill="white"/>
</svg>

<svg width="101" height="101" fill="none" xmlns="http://www.w3.org/2000/svg"><circle cx="50.676" cy="50.486" r="50" fill="#00AEEF"/><path d="M71.995 30.275h-12.18v6.084h7.416l9.145 36.542h-51.4l9.132-36.542h7.43v-6.084H29.356L17.175 78.998h67l-12.18-48.723Z" fill="#fff"/><path d="M47.633 29.745v12.71l6.085-6.096v-6.614a9.145 9.145 0 1 0-6.085 0Zm3.036-11.65a3.049 3.049 0 1 1 .025 6.097 3.049 3.049 0 0 1-.025-6.098Z" fill="#fff"/></svg>
